X: 5
T: The Holly Bush
R: reel
M: 4/4
L: 1/8
K: Dmix
A2FA DAFG|ABde fded|cGG2 EGG2|cedB cAGE|
A2FA DAFG|ABde fded|cGG2 cedB|cAGE D2dB:|
|:Add^c defg|age^c d=cAB|cGG2 cdeg|aged cAGc|
Add^c defg |age^c d=cAB|cGG2 cedB|cAGE D2dB:|


Tune 1566	Setting 1566

